X:568
T:Paddy Taylor's
R:reel
C:Paddy Taylor (1914-1976)
Z:id:hn-reel-568
M:C|
K:Dmix
FEDF ABAF|GEcE dEcE|FEDF ~A3F|1 GEcE EDDE:|2 GEcE EDD2||
Add^c d2ed|(3B^cd ef gfge|Add^c d2ed|=cAGE EDD2|
Add^c d2ed|(3B^cd ef g2fg|afge d2^cA|(3B^cd AG FDDE||
~F3G ABcA|~G2dG ~G2dG|~F3G Addc|(3ABA GE EDDE|
~F3G ABcA|~G2dG eGdG|~F3G Addc|(3ABA GE EDDE||
P:variations
|:F2DF ~A3F|GEcE dEcE|F2DF ABAF|1 GEcE EDDE:|2 GEcE EDD2||
Ad~d2 Ad~d2|Be~e2 Beag|fdd^c d2ed|=cAGE EDD2|
Add^c d2ed|(3B^cd ef g2ag|f2e^c d2cA|(3B^cd AG FDDE||
F2FG A2dA|~G2dG ~G2dG|FEFG A2dG|ABGE EDDE|
F3G A2dA|~G2dG ~G2dG|FEFG A2dG|ABGE EDDE||

